!!!OTL: Die Mordeltern Es warn einmal zwei Bauernsoehn,
!!!ARE: Europa, Mitteleuropa, Deutschland / France, Lothringen
!!!YOR: 4, S. 310
!!    ????
!!!SCT: Q0085S
!!!YEM: Copyright 1995, estate of Helmut Schaffrath.
**kern
*ICvox
*Ivox
*M3/4
*k[f#]
*G:
{8d
8d
8g
=1
4g
4b
8f#
8g
=2
4.a}
{8d
8d
8f#
=3
4a
8cc
8cc
8.b
16cc
=4
8.dd}
{16dd
8dd
8b
8cc
8ee
=5
4dd
4a}
{4dd
=6
8cc
8b
4cc
4dd
=7
2ee
4dd
=8
4.g}
==
!!!AGN: Ballade, Habgier, Mord, Reue, Selbstmord
!!!ONB: ESAC (Essen Associative Code) Database: BALLADE
!!!AMT: simple triple
!!!AIN: vox
!!!EED: Helmut Schaffrath
!!!EEV: 1.0
*-
